X: 231
T: A Jig For Christmas
R: jig
M: 6/8
K: Gmajor
|:D|GDG A2 B|cdc B^AB|cBA BAG|A2 F DEF|
GDG A2 B|cdc B^AB|cBA DEF|G3 G2:|
|:B/c/|d2 B Ged|c2 A Fdc|BAG AGF|GFE DEF|
G3 A2 B|cBA d3|cBA DEF|G3 G2:|

